X:1
T:Title
%%score { ( 1 4 ) | ( 2 3 ) }
L:1/8
M:4/4
K:G
V:1 treble nm="Grand Piano"
V:4 treble 
V:2 bass 
V:3 bass 
V:1
 z4 z2[Q:1/4=100] D2 | [B,DB]2 [B,FB]2 [B,EB]>B G>A | [B,DB]2 G,2 G,2 G>B | %3
 [FAd]>d [EG^c]>c [DA=c]>c [DFB]2 | [DGB]6 z2 | [B,DB]2 [B,FB]2 [B,EB]>B G>A | %6
 [B,DB]2 G,2 G,2 [DGB]>B | [DA]>A [DA]>A [D^GB]>B [E=G^c]>A |[M:3/4] [DFd]6 |[M:1/4] d>d | %10
[M:4/4] e6 z2 | c6 z2 | d6 z2 | B6 z2 | [^DB]>F G>E B,2 d>d | [Fd]>A B>G D2 D>D | %16
 [DG]>[DG] A>A B>B c>d | [Ee]6 [EGA]>[EGA] | [DGd]>[DGd] [B,G]>[B,G] [DGB]>[DGB] [CFA]>[CFA] | %19
[M:3/4] [B,DG]6 |] %20
V:2
 z4 z2 z z/ D/ | z z/[K:treble] B/ z z/ B/[K:bass] G,,2 [^D,G,C^D]2 | G,,2 D,2 D,2 [D,G,B,D]2 | %3
 [D,,D,]2 [E,,E,]2 [F,,F,]2 z z/ A/ | G,,2 D,2 D,2 z z/ D/ | %5
 z z/[K:treble] B/ z z/ B/[K:bass] G,,2 [^D,G,C^D]2 | G,,2 D,2 D,2 [D,G,]2 | %7
 [F,,F,]2 [F,,F,]2 [E,,E,]2 [A,,A,]2 |[M:3/4] [D,,D,]2 [D,F,]2 [D,F,]2 |[M:1/4] [D,D]>[D,D] | %10
[M:4/4][K:treble] [G,B,G]>[G,B,][K:bass] [D,B,]>[D,B,] [G,B,]>[G,B,G] [D,B,]>[D,B,D] | %11
 [A,CF]>[A,C][K:bass] [D,C]>[D,C] [A,C]2 D,>D, | %12
 [A,CF]>[A,C][K:bass] [D,C]>[D,C] [A,C]>[D,D] [D,D]>[D,D] | %13
 [G,DG]>[G,D][K:bass] [D,D]>[D,D] [G,D]2 B,>B, | [B,,F,B,]>F, G,>E, B,,2 D>D | %15
 [D,A,D]>A, B,>G, D,2 [D,F,A,]>[C,F,A,] | %16
 [B,,G,]>[B,,G,] [D,F,D]>[D,F,D][K:treble] [G,D]>[G,D] [G,A,F]>[G,B,=F] | [C,G,C]6 C,>C, | %18
 B,,>B,, E,>E, D,>D, D,>D, |[M:3/4] G,,6 |] %20
V:3
 z4 z2 D,2 | G,,2[K:treble] [D,G,]2[K:bass] z4 | x8 | z4 z2 [D,,D,]2 | z4 z2 D,2 | %5
 G,,2[K:treble] [D,G,]2[K:bass] z4 | x8 | x8 |[M:3/4] x6 |[M:1/4] x2 | %10
[M:4/4][K:treble] x2[K:bass] x6 | x2[K:bass] x6 | x2[K:bass] x6 | x2[K:bass] x6 | x8 | x8 | %16
 x4[K:treble] x4 | x8 | x8 |[M:3/4] x6 |] %20
V:4
 x8 | x8 | z2 [B,D]4 z2 | x8 | z2 [G,B,]2 [G,B,]2 D2 | x8 | z2 [B,D]4 z2 | x8 |[M:3/4] z2 A,2 A,2 | %9
[M:1/4] x2 |[M:4/4] z z/ G/ G>G G>d [GB]>G | z z/ F/ F>F F2 D>D | z z/ F/ F>F F>[Fc] [FB]>[FA] | %13
 z z/ G/ G>G G2 B>B | x8 | x8 | x8 | x8 | x8 |[M:3/4] x6 |] %20

